X: 21318
T: Kennaw's
R: reel
M: 4/4
K: Dmixolydian
fe|:d2AG FDDF|Eccc Eccc|(3dcB (3cBA BcAG|(3FGA EF Dgfe|
d2AG FDDF|(3EFG AB c2Bc|(3dcB (3cBA BcAG|1 (3FGA EG FDD2:|2 (3FGA EG FDDg||
fddd fdad|fddd (3Bcd eg|fddd fdag|faeg fdde|
fddd addd|eccc gccc|(3agf (3gfe fged|^ceaf g2||

